Newaita-dark/.places-mint/32/folder-megasync.svg

<?xml version="1.0" encoding="UTF-8"?>
<svg xmlns="http://www.w3.org/2000/svg" xmlns:xlink="http://www.w3.org/1999/xlink" width="32px" height="32px" viewBox="0 0 32 32" version="1.1">
<defs>
<linearGradient id="linear0" gradientUnits="userSpaceOnUse" x1="254" y1="233.5" x2="254" y2="254.666672" gradientTransform="matrix(0.062506,0,0,0.062506,-0.00000381506,13.438787)">
<stop offset="0" style="stop-color:rgb(0%,0%,0%);stop-opacity:0.27451;"/>
<stop offset="1" style="stop-color:rgb(0%,0%,0%);stop-opacity:0;"/>
</linearGradient>
<radialGradient id="radial0" gradientUnits="userSpaceOnUse" cx="450.908936" cy="189.579361" fx="450.908936" fy="189.579361" r="21.166656" gradientTransform="matrix(0.00000017417,-0.0781325,-0.140638,-0.000000101539,54.115213,63.595334)">
<stop offset="0" style="stop-color:rgb(0%,0%,0%);stop-opacity:0.313726;"/>
<stop offset="0.222222" style="stop-color:rgb(0%,0%,0%);stop-opacity:0.27451;"/>
<stop offset="1" style="stop-color:rgb(0%,0%,0%);stop-opacity:0;"/>
</radialGradient>
<radialGradient id="radial1" gradientUnits="userSpaceOnUse" cx="450.908936" cy="189.579361" fx="450.908936" fy="189.579361" r="21.166656" gradientTransform="matrix(-0.00000017417,0.0781325,0.140638,0.000000101539,-22.362178,-7.527477)">
<stop offset="0" style="stop-color:rgb(0%,0%,0%);stop-opacity:0.313726;"/>
<stop offset="0.222222" style="stop-color:rgb(0%,0%,0%);stop-opacity:0.27451;"/>
<stop offset="1" style="stop-color:rgb(0%,0%,0%);stop-opacity:0;"/>
</radialGradient>
<radialGradient id="radial2" gradientUnits="userSpaceOnUse" cx="450.908936" cy="189.579361" fx="450.908936" fy="189.579361" r="21.166656" gradientTransform="matrix(-0.00000017417,-0.0781325,0.140638,-0.000000101539,-22.362178,63.595334)">
<stop offset="0" style="stop-color:rgb(0%,0%,0%);stop-opacity:0.313726;"/>
<stop offset="0.222222" style="stop-color:rgb(0%,0%,0%);stop-opacity:0.27451;"/>
<stop offset="1" style="stop-color:rgb(0%,0%,0%);stop-opacity:0;"/>
</radialGradient>
<radialGradient id="radial3" gradientUnits="userSpaceOnUse" cx="450.908936" cy="189.579361" fx="450.908936" fy="189.579361" r="21.166656" gradientTransform="matrix(0.00000017417,0.0781325,-0.140638,0.000000101539,54.115211,-7.527477)">
<stop offset="0" style="stop-color:rgb(0%,0%,0%);stop-opacity:0.313726;"/>
<stop offset="0.222222" style="stop-color:rgb(0%,0%,0%);stop-opacity:0.27451;"/>
<stop offset="1" style="stop-color:rgb(0%,0%,0%);stop-opacity:0;"/>
</radialGradient>
<linearGradient id="linear1" gradientUnits="userSpaceOnUse" x1="254" y1="-147.5" x2="254" y2="-31.083334" gradientTransform="matrix(0.062506,0,0,0.062506,0.00000124975,13.438781)">
<stop offset="0" style="stop-color:rgb(64.313728%,64.313728%,64.313728%);stop-opacity:0;"/>
<stop offset="1" style="stop-color:rgb(100%,100%,100%);stop-opacity:0.196078;"/>
</linearGradient>
<linearGradient id="linear2" gradientUnits="userSpaceOnUse" x1="254" y1="233.5" x2="254" y2="-105.166656" gradientTransform="matrix(0.062506,0,0,0.062506,-0.00000181239,13.438783)">
<stop offset="0" style="stop-color:rgb(34.509805%,34.509805%,34.509805%);stop-opacity:0;"/>
<stop offset="1" style="stop-color:rgb(98.039216%,98.039216%,98.039216%);stop-opacity:0.196078;"/>
</linearGradient>
</defs>
<g id="surface1">
<path style=" stroke:none;fill-rule:nonzero;fill:url(#linear0);" d="M 3.96875 28.035156 L 27.785156 28.035156 L 27.785156 29.355469 L 3.96875 29.355469 Z M 3.96875 28.035156 "/>
<path style=" stroke:none;fill-rule:nonzero;fill:url(#radial0);" d="M 27.785156 28.035156 L 30.429688 28.035156 L 30.429688 26.710938 L 27.785156 26.710938 Z M 27.785156 28.035156 "/>
<path style=" stroke:none;fill-rule:nonzero;fill:url(#radial1);" d="M 3.96875 28.035156 L 1.324219 28.035156 L 1.324219 29.355469 L 3.96875 29.355469 Z M 3.96875 28.035156 "/>
<path style=" stroke:none;fill-rule:nonzero;fill:url(#radial2);" d="M 3.96875 28.035156 L 1.324219 28.035156 L 1.324219 26.710938 L 3.96875 26.710938 Z M 3.96875 28.035156 "/>
<path style=" stroke:none;fill-rule:nonzero;fill:url(#radial3);" d="M 27.785156 28.035156 L 30.429688 28.035156 L 30.429688 29.355469 L 27.785156 29.355469 Z M 27.785156 28.035156 "/>
<path style=" stroke:none;fill-rule:nonzero;fill:rgb(61.176473%,80.000001%,39.607844%);fill-opacity:1;" d="M 7.277344 4.21875 L 28.777344 4.21875 C 29.507812 4.21875 30.097656 4.8125 30.097656 5.542969 L 30.097656 10.503906 C 30.097656 11.234375 29.507812 11.828125 28.777344 11.828125 L 7.277344 11.828125 C 6.546875 11.828125 5.953125 11.234375 5.953125 10.503906 L 5.953125 5.542969 C 5.953125 4.8125 6.546875 4.21875 7.277344 4.21875 Z M 7.277344 4.21875 "/>
<path style=" stroke:none;fill-rule:nonzero;fill:url(#linear1);" d="M 7.277344 4.21875 L 28.777344 4.21875 C 29.507812 4.21875 30.097656 4.8125 30.097656 5.542969 L 30.097656 10.503906 C 30.097656 11.234375 29.507812 11.828125 28.777344 11.828125 L 7.277344 11.828125 C 6.546875 11.828125 5.953125 11.234375 5.953125 10.503906 L 5.953125 5.542969 C 5.953125 4.8125 6.546875 4.21875 7.277344 4.21875 Z M 7.277344 4.21875 "/>
<path style=" stroke:none;fill-rule:nonzero;fill:rgb(100%,100%,100%);fill-opacity:0.392157;" d="M 7.277344 4.300781 C 6.542969 4.300781 5.953125 4.890625 5.953125 5.625 L 5.953125 5.789062 C 5.953125 5.058594 6.542969 4.46875 7.277344 4.46875 L 28.777344 4.46875 C 29.507812 4.46875 30.097656 5.058594 30.097656 5.789062 L 30.097656 5.625 C 30.097656 4.890625 29.507812 4.300781 28.777344 4.300781 Z M 7.277344 4.300781 "/>
<path style=" stroke:none;fill-rule:nonzero;fill:rgb(12.941177%,12.941177%,12.941177%);fill-opacity:1;" d="M 7.277344 4.125 C 6.492188 4.125 5.859375 4.757812 5.859375 5.542969 L 5.859375 10.503906 C 5.859375 11.285156 6.492188 11.921875 7.277344 11.921875 L 28.777344 11.921875 C 29.558594 11.921875 30.191406 11.285156 30.191406 10.503906 L 30.191406 5.542969 C 30.191406 4.757812 29.558594 4.125 28.777344 4.125 Z M 7.277344 4.3125 L 28.777344 4.3125 C 29.457031 4.3125 30.003906 4.859375 30.003906 5.542969 L 30.003906 10.503906 C 30.003906 11.1875 29.457031 11.734375 28.777344 11.734375 L 7.277344 11.734375 C 6.59375 11.734375 6.046875 11.1875 6.046875 10.503906 L 6.046875 5.542969 C 6.046875 4.859375 6.59375 4.3125 7.277344 4.3125 Z M 7.277344 4.3125 "/>
<path style=" stroke:none;fill-rule:nonzero;fill:rgb(68.235296%,83.529413%,50.588238%);fill-opacity:1;" d="M 2.644531 6.863281 C 1.914062 6.863281 1.324219 7.457031 1.324219 8.1875 L 1.324219 26.710938 C 1.324219 27.445312 1.914062 28.035156 2.644531 28.035156 L 29.105469 28.035156 C 29.839844 28.035156 30.429688 27.445312 30.429688 26.710938 L 30.429688 10.171875 L 12.570312 10.171875 C 11.835938 10.171875 11.246094 9.582031 11.246094 8.851562 L 11.246094 6.863281 Z M 2.644531 6.863281 "/>
<path style=" stroke:none;fill-rule:nonzero;fill:url(#linear2);" d="M 2.644531 6.863281 C 1.914062 6.863281 1.324219 7.457031 1.324219 8.1875 L 1.324219 26.710938 C 1.324219 27.445312 1.914062 28.035156 2.644531 28.035156 L 29.105469 28.035156 C 29.839844 28.035156 30.429688 27.445312 30.429688 26.710938 L 30.429688 10.171875 L 12.570312 10.171875 C 11.835938 10.171875 11.246094 9.582031 11.246094 8.851562 L 11.246094 6.863281 Z M 2.644531 6.863281 "/>
<path style=" stroke:none;fill-rule:nonzero;fill:rgb(0%,0%,0%);fill-opacity:0.196078;" d="M 2.644531 28.035156 C 1.914062 28.035156 1.324219 27.445312 1.324219 26.710938 L 1.324219 26.546875 C 1.324219 27.277344 1.914062 27.867188 2.644531 27.867188 L 29.105469 27.867188 C 29.839844 27.867188 30.429688 27.277344 30.429688 26.546875 L 30.429688 26.710938 C 30.429688 27.445312 29.839844 28.035156 29.105469 28.035156 Z M 2.644531 28.035156 "/>
<path style=" stroke:none;fill-rule:nonzero;fill:rgb(100%,100%,100%);fill-opacity:0.392157;" d="M 2.644531 6.949219 C 1.914062 6.949219 1.324219 7.539062 1.324219 8.269531 L 1.324219 8.4375 C 1.324219 7.703125 1.914062 7.113281 2.644531 7.113281 L 11.246094 7.113281 L 11.246094 6.949219 Z M 2.644531 6.949219 "/>
<path style=" stroke:none;fill-rule:nonzero;fill:rgb(100%,100%,100%);fill-opacity:0.392157;" d="M 12.484375 10.339844 C 11.753906 10.339844 11.164062 9.75 11.164062 9.015625 L 11.164062 8.851562 C 11.164062 9.582031 11.753906 10.175781 12.484375 10.171875 L 30.429688 10.171875 L 30.429688 10.339844 Z M 12.484375 10.339844 "/>
<path style=" stroke:none;fill-rule:nonzero;fill:rgb(12.941177%,12.941177%,12.941177%);fill-opacity:1;" d="M 2.644531 6.769531 C 1.863281 6.769531 1.230469 7.40625 1.230469 8.1875 L 1.230469 26.710938 C 1.230469 27.496094 1.863281 28.128906 2.644531 28.128906 L 29.105469 28.128906 C 29.890625 28.128906 30.523438 27.496094 30.523438 26.710938 L 30.523438 9.984375 L 12.570312 9.984375 C 11.886719 9.984375 11.339844 9.4375 11.339844 8.757812 L 11.339844 6.769531 Z M 2.644531 6.960938 L 11.152344 6.960938 L 11.152344 8.757812 C 11.152344 9.539062 11.785156 10.171875 12.570312 10.171875 L 30.335938 10.171875 L 30.335938 26.710938 C 30.335938 27.394531 29.789062 27.941406 29.105469 27.941406 L 2.644531 27.941406 C 1.964844 27.941406 1.417969 27.394531 1.417969 26.710938 L 1.417969 8.1875 C 1.417969 7.503906 1.964844 6.960938 2.644531 6.960938 Z M 2.644531 6.960938 "/>
<path style=" stroke:none;fill-rule:nonzero;fill:rgb(54.509807%,76.47059%,29.019609%);fill-opacity:1;" d="M 12.339844 13.164062 C 12.089844 13.160156 11.84375 13.25 11.65625 13.4375 L 11.601562 13.492188 C 11.386719 13.707031 11.300781 14 11.339844 14.285156 L 11.339844 22.105469 C 11.339844 22.65625 11.78125 23.097656 12.332031 23.097656 C 12.882812 23.097656 13.324219 22.65625 13.324219 22.105469 L 13.324219 16.5625 L 15.253906 18.492188 C 15.449219 18.6875 15.699219 18.785156 15.945312 18.792969 C 15.953125 18.792969 15.960938 18.792969 15.96875 18.792969 C 15.980469 18.792969 15.988281 18.792969 15.996094 18.792969 C 16.242188 18.785156 16.492188 18.6875 16.683594 18.492188 L 18.617188 16.5625 L 18.617188 22.105469 C 18.617188 22.65625 19.058594 23.097656 19.609375 23.097656 C 20.160156 23.097656 20.601562 22.65625 20.601562 22.105469 L 20.601562 14.285156 C 20.640625 14 20.550781 13.707031 20.335938 13.492188 L 20.28125 13.4375 C 19.910156 13.0625 19.296875 13.074219 18.90625 13.464844 L 15.96875 16.402344 L 13.035156 13.464844 C 12.839844 13.269531 12.589844 13.167969 12.339844 13.164062 Z M 12.339844 13.164062 "/>
<path style=" stroke:none;fill-rule:nonzero;fill:rgb(0%,0%,0%);fill-opacity:0.235294;" d="M 12.339844 13.164062 C 12.089844 13.160156 11.84375 13.25 11.65625 13.4375 L 11.601562 13.492188 C 11.386719 13.707031 11.300781 14 11.339844 14.285156 L 11.339844 14.296875 C 11.367188 14.097656 11.453125 13.910156 11.601562 13.761719 L 11.65625 13.707031 C 11.84375 13.519531 12.089844 13.429688 12.339844 13.433594 C 12.589844 13.441406 12.839844 13.539062 13.035156 13.734375 L 15.96875 16.671875 L 18.90625 13.734375 C 19.296875 13.347656 19.910156 13.332031 20.28125 13.707031 L 20.335938 13.761719 C 20.488281 13.910156 20.574219 14.097656 20.601562 14.296875 L 20.601562 14.285156 C 20.640625 14 20.550781 13.707031 20.335938 13.492188 L 20.28125 13.4375 C 19.910156 13.0625 19.296875 13.074219 18.90625 13.464844 L 15.96875 16.402344 L 13.035156 13.464844 C 12.839844 13.269531 12.589844 13.167969 12.339844 13.164062 Z M 12.339844 13.164062 "/>
<path style=" stroke:none;fill-rule:nonzero;fill:rgb(100%,100%,100%);fill-opacity:0.392157;" d="M 11.339844 14.269531 C 11.328125 14.351562 11.328125 14.433594 11.339844 14.519531 L 11.339844 14.277344 C 11.339844 14.273438 11.339844 14.269531 11.339844 14.269531 Z M 20.601562 14.269531 C 20.601562 14.269531 20.601562 14.273438 20.601562 14.277344 L 20.601562 14.519531 C 20.613281 14.433594 20.613281 14.351562 20.601562 14.269531 Z M 13.324219 16.554688 L 13.324219 16.796875 L 15.253906 18.726562 C 15.449219 18.921875 15.699219 19.019531 15.945312 19.027344 C 15.953125 19.027344 15.960938 19.027344 15.96875 19.027344 C 15.980469 19.027344 15.988281 19.027344 15.996094 19.027344 C 16.242188 19.019531 16.492188 18.921875 16.683594 18.726562 L 18.617188 16.796875 L 18.617188 16.554688 L 16.683594 18.484375 C 16.492188 18.679688 16.242188 18.777344 15.996094 18.785156 C 15.988281 18.785156 15.980469 18.785156 15.96875 18.785156 C 15.960938 18.785156 15.953125 18.785156 15.945312 18.785156 C 15.699219 18.777344 15.449219 18.679688 15.253906 18.484375 Z M 11.339844 22.097656 L 11.339844 22.339844 C 11.339844 22.890625 11.78125 23.332031 12.332031 23.332031 C 12.882812 23.332031 13.324219 22.890625 13.324219 22.339844 L 13.324219 22.097656 C 13.324219 22.648438 12.882812 23.089844 12.332031 23.089844 C 11.78125 23.089844 11.339844 22.648438 11.339844 22.097656 Z M 18.617188 22.097656 L 18.617188 22.339844 C 18.617188 22.890625 19.058594 23.332031 19.609375 23.332031 C 20.160156 23.332031 20.601562 22.890625 20.601562 22.339844 L 20.601562 22.097656 C 20.601562 22.648438 20.160156 23.089844 19.609375 23.089844 C 19.058594 23.089844 18.617188 22.648438 18.617188 22.097656 Z M 18.617188 22.097656 "/>
<path style=" stroke:none;fill-rule:nonzero;fill:rgb(12.941177%,12.941177%,12.941177%);fill-opacity:1;" d="M 12.339844 13.070312 C 12.070312 13.066406 11.796875 13.164062 11.589844 13.371094 L 11.535156 13.425781 C 11.300781 13.660156 11.203125 13.984375 11.246094 14.296875 L 11.246094 14.285156 L 11.246094 22.105469 C 11.246094 22.707031 11.730469 23.191406 12.332031 23.191406 C 12.933594 23.191406 13.417969 22.707031 13.417969 22.105469 L 13.417969 16.789062 L 15.1875 18.558594 C 15.398438 18.769531 15.671875 18.878906 15.941406 18.886719 C 15.953125 18.886719 15.960938 18.886719 15.96875 18.886719 C 15.976562 18.886719 15.988281 18.886719 16 18.886719 C 16.269531 18.878906 16.542969 18.769531 16.75 18.558594 L 18.523438 16.789062 L 18.523438 22.105469 C 18.523438 22.707031 19.007812 23.191406 19.609375 23.191406 C 20.207031 23.191406 20.695312 22.707031 20.695312 22.105469 L 20.695312 14.285156 L 20.695312 14.296875 C 20.734375 13.984375 20.640625 13.660156 20.402344 13.425781 L 20.347656 13.371094 C 19.9375 12.960938 19.261719 12.976562 18.839844 13.398438 L 15.96875 16.269531 L 13.101562 13.398438 C 12.886719 13.1875 12.613281 13.078125 12.339844 13.070312 Z M 19.601562 13.257812 C 19.828125 13.253906 20.046875 13.335938 20.214844 13.503906 L 20.269531 13.558594 C 20.464844 13.75 20.542969 14.015625 20.507812 14.273438 L 20.507812 22.105469 C 20.507812 22.605469 20.109375 23.003906 19.609375 23.003906 C 19.109375 23.003906 18.710938 22.605469 18.710938 22.105469 L 18.710938 16.335938 L 16.617188 18.425781 C 16.441406 18.601562 16.21875 18.691406 15.992188 18.699219 C 15.988281 18.699219 15.980469 18.699219 15.96875 18.699219 C 15.960938 18.699219 15.953125 18.699219 15.945312 18.699219 C 15.722656 18.691406 15.496094 18.601562 15.320312 18.425781 L 13.230469 16.335938 L 13.230469 22.105469 C 13.230469 22.605469 12.832031 23.003906 12.332031 23.003906 C 11.832031 23.003906 11.433594 22.605469 11.433594 22.105469 L 11.433594 14.273438 C 11.398438 14.015625 11.476562 13.75 11.667969 13.558594 L 11.722656 13.503906 C 11.890625 13.335938 12.113281 13.253906 12.339844 13.257812 C 12.5625 13.261719 12.789062 13.355469 12.96875 13.53125 L 15.96875 16.535156 L 18.972656 13.53125 C 19.152344 13.355469 19.378906 13.261719 19.601562 13.257812 Z M 19.601562 13.257812 "/>
</g>
</svg>

<svg xmlns="http://www.w3.org/2000/svg" width="32" height="32"><defs><linearGradient id="a" gradientUnits="userSpaceOnUse" x1="254" y1="233.5" x2="254" y2="254.667" gradientTransform="matrix(.0625 0 0 .0625 0 13.439)"><stop offset="0" stop-opacity=".275"/><stop offset="1" stop-opacity="0"/></linearGradient><radialGradient id="b" gradientUnits="userSpaceOnUse" cx="450.909" cy="189.579" fx="450.909" fy="189.579" r="21.167" gradientTransform="matrix(0 -.07813 -.14064 0 54.115 63.595)"><stop offset="0" stop-opacity=".314"/><stop offset=".222" stop-opacity=".275"/><stop offset="1" stop-opacity="0"/></radialGradient><radialGradient id="c" gradientUnits="userSpaceOnUse" cx="450.909" cy="189.579" fx="450.909" fy="189.579" r="21.167" gradientTransform="matrix(0 .07813 .14064 0 -22.362 -7.527)"><stop offset="0" stop-opacity=".314"/><stop offset=".222" stop-opacity=".275"/><stop offset="1" stop-opacity="0"/></radialGradient><radialGradient id="d" gradientUnits="userSpaceOnUse" cx="450.909" cy="189.579" fx="450.909" fy="189.579" r="21.167" gradientTransform="matrix(0 -.07813 .14064 0 -22.362 63.595)"><stop offset="0" stop-opacity=".314"/><stop offset=".222" stop-opacity=".275"/><stop offset="1" stop-opacity="0"/></radialGradient><radialGradient id="e" gradientUnits="userSpaceOnUse" cx="450.909" cy="189.579" fx="450.909" fy="189.579" r="21.167" gradientTransform="matrix(0 .07813 -.14064 0 54.115 -7.527)"><stop offset="0" stop-opacity=".314"/><stop offset=".222" stop-opacity=".275"/><stop offset="1" stop-opacity="0"/></radialGradient><linearGradient id="f" gradientUnits="userSpaceOnUse" x1="254" y1="-147.5" x2="254" y2="-31.083" gradientTransform="matrix(.0625 0 0 .0625 0 13.439)"><stop offset="0" stop-color="#a4a4a4" stop-opacity="0"/><stop offset="1" stop-color="#fff" stop-opacity=".196"/></linearGradient><linearGradient id="g" gradientUnits="userSpaceOnUse" x1="254" y1="233.5" x2="254" y2="-105.167" gradientTransform="matrix(.0625 0 0 .0625 0 13.439)"><stop offset="0" stop-color="#585858" stop-opacity="0"/><stop offset="1" stop-color="#fafafa" stop-opacity=".196"/></linearGradient><linearGradient id="h" gradientUnits="userSpaceOnUse" x1="254" y1="-147.5" x2="254" y2="233.5" gradientTransform="matrix(.0625 0 0 .0625 0 13.439)"><stop offset="0" stop-color="#585858" stop-opacity="0"/><stop offset="1" stop-color="#fafafa" stop-opacity=".196"/></linearGradient></defs><path d="M3.969 28.035h23.816v1.32H3.97zm0 0" fill="url(#a)"/><path d="M27.785 28.035h2.645v-1.324h-2.645zm0 0" fill="url(#b)"/><path d="M3.969 28.035H1.324v1.32H3.97zm0 0" fill="url(#c)"/><path d="M3.969 28.035H1.324v-1.324H3.97zm0 0" fill="url(#d)"/><path d="M27.785 28.035h2.645v1.32h-2.645zm0 0" fill="url(#e)"/><path d="M7.277 4.219h21.5c.73 0 1.32.593 1.32 1.324v4.96c0 .731-.59 1.325-1.32 1.325h-21.5c-.73 0-1.324-.594-1.324-1.324V5.543c0-.73.594-1.324 1.324-1.324zm0 0" fill="#7cb342"/><path d="M7.277 4.219h21.5c.73 0 1.32.593 1.32 1.324v4.96c0 .731-.59 1.325-1.32 1.325h-21.5c-.73 0-1.324-.594-1.324-1.324V5.543c0-.73.594-1.324 1.324-1.324zm0 0" fill="url(#f)"/><path d="M7.277 4.219a1.32 1.32 0 0 0-1.324 1.324v.164c0-.734.59-1.324 1.324-1.324h21.5c.73 0 1.32.59 1.32 1.324v-.164a1.32 1.32 0 0 0-1.32-1.324zm0 0" fill="#e6e6e6" fill-opacity=".588"/><path d="M7.277 4.125c-.785 0-1.418.633-1.418 1.418v4.96c0 .782.633 1.419 1.418 1.419h21.5c.782 0 1.414-.637 1.414-1.418V5.543c0-.785-.632-1.418-1.414-1.418zm0 .188h21.5c.68 0 1.227.546 1.227 1.23v4.96c0 .684-.547 1.231-1.227 1.231h-21.5c-.683 0-1.23-.546-1.23-1.23V5.543c0-.684.547-1.23 1.23-1.23zm0 0" fill="#212121"/><path d="M2.645 6.863c-.73 0-1.32.594-1.32 1.324v18.524c0 .734.59 1.324 1.32 1.324h26.46a1.32 1.32 0 0 0 1.325-1.324V10.17H12.57a1.32 1.32 0 0 1-1.324-1.32V6.864zm0 0" fill="#9ccc65"/><path d="M2.645 6.863c-.73 0-1.32.594-1.32 1.324v18.524c0 .734.59 1.324 1.32 1.324h26.46a1.32 1.32 0 0 0 1.325-1.324V10.17H12.57a1.32 1.32 0 0 1-1.324-1.32V6.864zm0 0" fill="url(#g)"/><path d="M2.645 28.035c-.73 0-1.32-.59-1.32-1.324v-.164c0 .73.59 1.32 1.32 1.32h26.46a1.32 1.32 0 0 0 1.325-1.32v.164a1.32 1.32 0 0 1-1.325 1.324zm0 0" fill-opacity=".196"/><path d="M2.645 6.863c-.73 0-1.32.594-1.32 1.324v.168c0-.734.59-1.324 1.32-1.324h8.601v-.168zm0 0M12.484 10.254c-.73 0-1.32-.59-1.32-1.32v-.168c0 .734.59 1.324 1.32 1.324H30.43v.164zm0 0" fill="#e6e6e6" fill-opacity=".937"/><path d="M2.645 6.77c-.782 0-1.415.636-1.415 1.418V26.71c0 .785.633 1.418 1.415 1.418h26.46c.786 0 1.418-.633 1.418-1.418V9.984H12.57c-.683 0-1.23-.546-1.23-1.226V6.77zm0 .19h8.507v1.798c0 .781.633 1.414 1.418 1.414h17.766V26.71c0 .684-.547 1.23-1.23 1.23H2.644c-.68 0-1.227-.546-1.227-1.23V8.188c0-.684.547-1.227 1.227-1.227zm0 0" fill="#212121"/><path d="M12.34 13.164a.937.937 0 0 0-.684.274l-.054.054a.933.933 0 0 0-.262.793v7.82c0 .551.441.993.992.993.55 0 .992-.442.992-.993v-5.543l1.93 1.93c.195.195.445.293.691.301H15.996c.246-.008.496-.105.688-.3l1.933-1.93v5.542c0 .551.442.993.992.993.551 0 .993-.442.993-.993v-7.82a.935.935 0 0 0-.266-.793l-.055-.055c-.37-.374-.984-.363-1.375.028l-2.937 2.937-2.934-2.937a1.006 1.006 0 0 0-.695-.3zm0 0" fill="#7cb342"/><path d="M12.34 13.164a.937.937 0 0 0-.684.274l-.054.054a.933.933 0 0 0-.262.793v7.82c0 .551.441.993.992.993.55 0 .992-.442.992-.993v-5.543l1.93 1.93c.195.195.445.293.691.301H15.996c.246-.008.496-.105.688-.3l1.933-1.93v5.542c0 .551.442.993.992.993.551 0 .993-.442.993-.993v-7.82a.935.935 0 0 0-.266-.793l-.055-.055c-.37-.374-.984-.363-1.375.028l-2.937 2.937-2.934-2.937a1.006 1.006 0 0 0-.695-.3zm0 0" fill="url(#h)"/><path d="M12.34 13.07a1.034 1.034 0 0 0-.75.301l-.055.055a1.03 1.03 0 0 0-.289.87v-.01 7.82c0 .601.484 1.085 1.086 1.085.602 0 1.086-.484 1.086-1.086V16.79l1.77 1.77c.21.21.484.32.753.328H16c.27-.008.543-.117.75-.328l1.773-1.77v5.316a1.086 1.086 0 0 0 2.172 0v-7.82.012a1.032 1.032 0 0 0-.293-.871l-.054-.055c-.41-.41-1.086-.394-1.508.027l-2.871 2.872-2.867-2.872a1.132 1.132 0 0 0-.762-.328zm7.262.188a.837.837 0 0 1 .613.246l.055.055a.835.835 0 0 1 .238.714v7.832c0 .5-.399.899-.899.899a.894.894 0 0 1-.898-.899v-5.77l-2.094 2.09a.923.923 0 0 1-.625.274h-.047a.93.93 0 0 1-.625-.273l-2.09-2.09v5.77c0 .5-.398.898-.898.898a.894.894 0 0 1-.898-.899v-7.832a.844.844 0 0 1 .234-.714l.055-.055a.845.845 0 0 1 .617-.246c.223.004.45.097.629.273l3 3.004 3.004-3.004a.929.929 0 0 1 .629-.273zm0 0" fill="#212121"/></svg>
